svgs/thin/feather-pointed.svg

<svg xmlns="http://www.w3.org/2000/svg" viewBox="0 0 512 512"><!--! Font Awesome Pro 6.3.0 by @fontawesome - https://fontawesome.com License - https://fontawesome.com/license (Commercial License) Copyright 2023 Fonticons, Inc. --><path d="M478.9 .0846C361.4 8.514-10.13 62.73 77.13 412.3c.6953 2.787 1.834 5.501 3.268 7.953l-78.05 78.04c-3.125 3.125-3.125 8.187 0 11.31c3.127 3.127 8.186 3.127 11.31 0l78.05-78.04c2.451 1.434 5.163 2.571 7.951 3.266c36.15 9.021 69.07 13.12 99.19 13.12c261.1 0 305.5-309.5 313.1-414.9C512.9 19.44 502.5-1.593 478.9 .0846zM198.8 432c-29.49 0-61.45-4.25-94.95-12.58l83.42-83.42h208.3C351.7 391.6 289 432 198.8 432zM283.3 240h166.7c-11.27 27.87-25.39 55.04-42.7 79.1H203.3L283.3 240zM456.1 224C456 224 456.1 224 456.1 224L299.3 224l42.35-42.34c3.125-3.125 3.125-8.187 0-11.31c-3.125-3.125-8.188-3.125-11.31 0l-237.8 237.8c-24.09-96.92-13.29-177.8 32.16-240.5c87-119.1 277.4-145.9 355.3-151.5c10.21-.366 16.56 7.521 15.95 15.95C493.2 71.39 483.9 148.2 456.1 224z"/></svg>

<svg xmlns="http://www.w3.org/2000/svg" viewBox="0 0 512 512"><!-- Font Awesome Pro 6.0.0-alpha2 by @fontawesome - https://fontawesome.com License - https://fontawesome.com/license (Commercial License) --><path d="M478.883 0.094C361.406 8.524 -10.116 62.808 77.143 412.423C77.839 415.21 78.96 417.847 80.394 420.298L2.344 498.343C-0.781 501.468 -0.781 506.53 2.344 509.655C5.471 512.782 10.53 512.782 13.657 509.655L91.706 431.61C94.158 433.044 96.795 434.165 99.582 434.86C135.732 443.881 168.737 448 198.847 448C459.966 448 504.378 138.47 511.937 33.146C512.92 19.452 502.487 -1.583 478.883 0.094ZM198.847 432.001C169.356 432.001 137.402 427.751 103.896 419.421L187.319 336.003H395.587C351.657 391.644 289.005 432.001 198.847 432.001ZM283.323 240.006H450.034C438.762 267.878 424.642 295.047 407.337 320.004H203.32L283.323 240.006ZM456.149 224.061C456.099 224.059 456.067 224.006 456.017 224.006H299.323L341.669 181.664C344.794 178.539 344.794 173.477 341.669 170.352C338.544 167.227 333.481 167.227 330.356 170.352L92.578 408.115C68.483 311.197 79.288 230.27 124.739 167.582C211.74 47.585 402.187 21.639 480.025 16.053C490.238 15.687 496.582 23.574 495.977 32.002C493.151 71.391 483.977 148.194 456.149 224.061Z"/></svg>
